brandFactory_export/3.Masa/Avanzar_3Masa.svg

<?xml version="1.0" encoding="UTF-8"?>
<svg width="24px" height="24px" viewBox="0 0 24 24" version="1.1" xmlns="http://www.w3.org/2000/svg" xmlns:xlink="http://www.w3.org/1999/xlink">
    <title>3.Masa/Avanzar_3Masa</title>
    <g id="Symbols" stroke="none" stroke-width="1" fill="none" fill-rule="evenodd">
        <g id="3.Masa/Avanzar_3Masa" fill="#5CB615" fill-rule="nonzero">
            <path d="M11.8151261,0 C4.08403361,0 0,4.08403361 0,11.8151261 C0,19.5394958 4.08403361,23.6235294 11.8151261,23.6235294 C19.5394958,23.6235294 23.6235294,19.5394958 23.6235294,11.8151261 C23.6235294,4.08403361 19.5394958,0 11.8151261,0 Z M6.60504202,13.7277311 L10.4067227,11.4655462 L6.60504202,9.17983193 L6.60504202,13.7277311 L6.60504202,13.7277311 Z M17.5159664,11.4588235 L13.7142857,9.17310924 L13.7142857,13.7210084 L17.5159664,11.4588235 Z M5.51932773,7.26386555 C5.74789916,7.13277311 6.02689076,7.1394958 6.25210084,7.27394958 L12.194958,10.8436975 C12.2252101,10.8605042 12.2352941,10.8907563 12.2621849,10.9109244 L12.2621849,7.88907563 C12.2621849,7.62689076 12.4033613,7.38487395 12.6319328,7.25714286 C12.8571429,7.12941176 13.1394958,7.13277311 13.3613445,7.26722689 L19.3042017,10.8403361 C19.5226891,10.9714286 19.6571429,11.2067227 19.6571429,11.4621849 C19.6571429,11.7176471 19.5226891,11.9529412 19.3042017,12.0840336 L13.3613445,15.6201681 C13.2470588,15.687395 13.1193277,15.7210084 12.9882353,15.7210084 C12.8638655,15.7210084 12.7394958,15.6907563 12.6285714,15.6268908 C12.4,15.4957983 12.2621849,15.2571429 12.2621849,14.994958 L12.2621849,12.0168067 C12.2352941,12.0369748 12.2218487,12.0705882 12.1915966,12.087395 L6.2487395,15.6302521 C6.13445378,15.697479 6.00672269,15.7310924 5.87563025,15.7310924 C5.7512605,15.7310924 5.62689076,15.7008403 5.51596639,15.6369748 C5.2907563,15.5058824 5.14957983,15.2672269 5.14957983,15.005042 L5.14957983,7.89579832 C5.15294118,7.63361345 5.29411765,7.39495798 5.51932773,7.26386555 Z" id="Avanzar_3Masa"></path>
        </g>
    </g>
</svg>

<svg width="24" height="24" viewBox="0 0 24 24" xmlns="http://www.w3.org/2000/svg"><path d="M11.815 0C4.084 0 0 4.084 0 11.815c0 7.724 4.084 11.809 11.815 11.809 7.724 0 11.809-4.085 11.809-11.809C23.624 4.084 19.539 0 11.815 0zm-5.21 13.728l3.802-2.262L6.605 9.18v4.548zm10.911-2.27l-3.802-2.285v4.548l3.802-2.262zM5.519 7.265a.724.724 0 01.733.01l5.943 3.57c.03.017.04.047.067.067V7.889a.724.724 0 011.1-.622l5.942 3.573a.725.725 0 010 1.244l-5.943 3.536a.732.732 0 01-.732.007.724.724 0 01-.367-.632v-2.978c-.027.02-.04.054-.07.07L6.249 15.63a.732.732 0 01-.733.007.731.731 0 01-.366-.632v-7.11a.742.742 0 01.37-.631z" fill="#5CB615" fill-rule="nonzero"/></svg>
